X:1
T:Felice me se de i bei lum'un raggio
T:Jacques Arcadelt c.1500-1568
T:Felice me se de i bei lum'un raggio
T:This work is licensed under CC0: creativecommons.org/publicdomain/zero/1.0/
T:Transcribed from 1539 Gardano edition of Arcadelt's Il primo libro di madrigali a 4 Original note values halved
T:This work is licensed under CC0: creativecommons.org/publicdomain/zero/1.0/
T:This work is licensed under CC0: creativecommons.org/publicdomain/zero/1.0/
T:This work is licensed under CC0: creativecommons.org/publicdomain/zero/1.0/
T:This work is licensed under CC0: creativecommons.org/publicdomain/zero/1.0/
C:Jacques Arcadelt
C:c.1500-1568
Z:Anonymous
Z:This work is licensed under CC0: creativecommons.org/publicdomain/zero/1.0/
%%score [ 1 2 3 4 ]
L:1/8
M:4/4
K:C
V:1 treble nm="Piano" snm="Pno."
V:2 treble transpose=-12 nm="Piano" snm="Pno."
V:3 treble transpose=-12 nm="Piano" snm="Pno."
V:4 treble nm="Piano" snm="Pno."
V:1
"^Cantus" x8 |"^Instrument change" z8 | z8 | z2 A2 G2 E2 | F2 G2 A3 A | G2 F2 E4 | D2 F2 E2 D2 | %7
w: |||Fe- li- ce|me se de'i bei|lu- m'un rag-|gio che di vil-|
 E2 F2 G4 | F2 A2 G2 F2 | E2 D2 C3 D | EF G4 E2- | E2 F3 E D2- | D^C/"^#"B,/"^#" C2 !fermata!D4 || %13
w: ta mi spo-|glia in mio fa-|vor s'un- is- *|* * se con|_ la _ vo-|* * * * glia.|
 F8 | F2 F2 G2 G2 | F2 A2 G2 A2- | A^G/"^#""^#"^F/"^#" G2 A4 | z2 F2 G2 E2 | F2 G2 E2 E2 | %19
w: Ser-|ven- d'ha- ve- t'a|cui par non ha'l|_ _ _ mon- do|in que- sto|mor- tal ve- lo|
 z2 F2 G3 F | E2 D2 E2 F2 | G2 A2- AG G2- | GF/E/ F2 G4- | G4 z4 | z2 C2 G3 F | E2 G2 FE E2- | %26
w: non fo- r'al|mio bel- lo sta-|to se- * * con-|* * * * do|_|se non chi|vi- v'in cie- * *|
 ED/C/ D2 E4 | z8 | E8 | A4- A2 G2 | G4 A4 | c6 B2 | A2 G2 A4 | G4 z2 G2 | A3 G F2 E2 | D2 E2 z4 | %36
w: * * * * lo||ma|ah- * i-|me che|mi si|muo- v'un ge-|lo e|te- mo non mi|to- glia|
 z4 z2 B2 | c3 B A2 G2 | F4 E4 | F4 F2 F2 | A3 G F2 E2 | D2 F2 E2 D2- | D2 CB, C4 | D8- | D8- | %45
w: e|te- mo non mi|to- glia|il cor di|quel che l'oc- chio|più m'in- vo- *||glia.|_|
 D8- | D8 |] %47
w: ||
V:2
"^Alto" x8 |"^Instrument change" z2 A,,2 B,,2 C,2 | D,2 E,2 F,3 F, | E,2 D,2 E,4 | %4
w: |Fe- li- ce|me se de'i bei|lu- m'un rag-|
 A,,2 B,,2 C,3 C, | C,2 A,,2 A,,4 | A,,2 A,,2 A,,2 A,,2 | C,2 A,,4 G,,2 | A,,2 D,,2 E,,2 F,,2 | %9
w: gio se de'i bei|lu- m'un rag-|gio che di vil-|ta mi spo-|glia in mio fa-|
 G,,2 G,,2 A,,4 | B,,4 C,2 C,2- | C,B,,A,,G,, F,,2 G,,2 | A,,4 !fermata!A,,4 || A,,8 | %14
w: vor s'un- is-|se con la|_ _ _ _ vo- *|* glia.|Ser-|
 A,,2 A,,2 B,,2 G,,2 | A,,2 F,2 E,2 D,2 | E,4 C,4 | z2 D,2 B,, C,2 A,,- | %18
w: ven- d'ha- ve- t'a|cui par non ha'l|mon- do|in que- sto mor-|
 A,, D,2 C,/"^b"_B,,/ C, D,2 C, | D,2 A,,2 B,,3 A,, | G,,2 G,,2 G,,2 D,2 | B,,2 A,,2 B,,2 C,2 | %22
w: * tal _ _ _ ve- *|lo non fo- r'al|mio bel- lo sta-|to se- con- *|
 D,4 E,4- | E,4 z4 | z4 z2 G,,2 | C,3 B,, A,,2 C,2 | B,,4 A,,4 | z8 | B,,4 C,4- | C,2 C,2 B,,4 | %30
w: * do|_|se|non chi vi- v'in|cie- lo||ma ah-|* i- me|
 B,,4 C,4- | C,2 C,2 A,,2 B,,2 | C,2 B,,2- B,,A,,/G,,/ A,,2 | B,,8 | z8 | G,,4 A,,3 G,, | %36
w: che mi|* si muo- v'un|ge- * * * * *|lo||e te- mo|
 F,,2 E,,2 D,,4 | E,,4 z4 | z4 A,,4 | A,,2 A,,2 A,,4- | A,,2 A,,2 A,,2 A,,2 | %41
w: non mi to-|glia|il|cor di quel|_ che l'oc- chio|
 _B,,2"^b" B,,2"^b" B,,4 | A,,4 z2 A,,2 | A,,2 A,,2 A,,4- | A,,2 A,,2 A,,2 A,,2 | %45
w: più m'in- vo-|glia il|cor di quel|_ che l'oc- chio|
 _B,,2"^b" B,,2"^b" B,,4 | A,,8 |] %47
w: più m'in- vo-|glia.|
V:3
"^Tenor" x8 |"^Instrument change" z8 | z8 | z2 A,,2 B,,2 C,2 | D,2 E,2 (3:2:2F,4 F,2 | %5
w: |||Fe- li- ce|me se de'i *|
 E,2 D,4 C,2 | D,2 D,2 C,2 F,2 | E,2 D,3 C,/B,,/ C,2 | D,3 C, B,,2 A,,2 | z2 D,,2 E,,2 F,,2 | %10
w: lu- m'un rag-|gio che di vil-|ta mi _ _ _|spo- * * glia|in mio fa-|
 G,,2 G,,2 G,,2 G,,2 | A,,4 D,,4 | E,,4 !fermata!D,,4 || D,8 | D,2 D,2 D,2 C,2 | D,3 C, B,,2 A,,2 | %16
w: vor s'un- is- se|con la|vo- glia.|Ser-|ven- d'ha- ve- t'a|cui par non ha'l|
 B,,4 A,,4 | z2 A,,2 G,,2 A,,2 | F,,2 _B,,2 A,,4 | A,,4 z2 D,2 | C,2 B,,2 C,2 A,,2 | %21
w: mon- do|in que- sto|mor- tal ve-|lo non|fo- r'al mio bel-|
 G,,2 C,2 B,,2 A,,G,, | A,,2 B,,2 C,2 G,,2 | C,3 B,, A,,2 C,2 | B,,2 A,,2 B,,4 | z8 | %26
w: lo sta- to se- *|con- * do se|non chi vi- v'in|cie- * lo||
 z2 G,,2 C,3 B,, | A,,2 C,2 B,,2 A,,2- | A,,2 G,,2 A,,2 A,,2 | E,6 E,2 | E,4 E,4 | E,6 E,2 | %32
w: se non chi|vi- v'in cie- *|* * lo ma|ah- i-|me che|mi si|
 F,2 E,4 D,2 | E,4 z2 E,2 | (3:2:2F,4 E,2 D,2 C,2 | B,,4 A,,4 | z2 A,,2 D,2 D,2 | %37
w: muo- v'un ge-|lo e|te- * mo mi|to- glia|e te- mo|
 C,2 A,,B,, C,D, E,2- | E,2 D,2- D,C,/B,,/ C,2 | D,2 D,2 D,2 D,2 | D,,6 E,,2 | F,,2 F,,2 G,,4 | %42
w: non mi _ _ _ _|_ to- * * * *|glia il cor di|quel che|l'oc- chio più|
 F,,3 E,,/D,,/ E,,4 | D,,2 F,,2 F,,2 F,,2 | D,,3 C,, D,,2 E,,2 | F,,2 F,,2 G,,4 |"^#" ^F,,8 |] %47
w: m'in- * * vo-|glia il cor di|quel che l'oc- chio|più m'in- vo-|glia.|
V:4
"^Bass" x8 |"^Instrument change" A,4 G,2 E,2 | F,2 G,2 A,3 A, | G,2 F,2 E,4 | D,2 G,2 F,3 F, | %5
w: |Fe- li- ce|me se de'i bei|lu- m'un rag-|gio se de'i bei|
 C,2 D,2 A,,4 | D,2 D,2 A,,2 D,2 | C,2 D,2 E,4 | D,4 z2 D,2 | C,2 B,,2 A,,2 A,,2 | G,,4 C,3 B,, | %11
w: lu- m'un rag-|gio che di vil-|ta mi spo-|glia in|mio fa- vor s'un-|is- se _|
 A,,2 F,,2 _B,,4 | A,,4 !fermata!D,4 || D,8 | D,2 D,2 G,2 E,2 | D,2 D,2 E,2 F,2 | E,4 A,,4 | %17
w: con la vo-|* glia.|Ser-|ven- d'ha- ve- t'a|cui par non ha'l|mon- do|
 D,4 E,2 C,2 | D,2 G,,2 A,,4 | D,4 z2 G,,2 | C,2 G,,2 C,2 D,2 | E,2 F,2 G,2 E,2 | D,4 C,4 | %23
w: in que- sto|mor- tal ve-|lo non|fo- r'al mio bel-|lo sta- to se-|con- do|
 z2 C,2 F,3 E, | D,2 F,2 E,4 | C,4 z4 | z4 z2 C,2 | F,3 E, D,2 F,2 | E,4 A,,4 | A,,4 E,4- | %30
w: se non chi|vi- v'in cie-|lo|se|non chi vi- v'in|cie- lo|ma ah-|
 E,2 E,2 A,,4 | A,4 A,2 G,2 | A,2 E,2 F,4 | E,8 | z8 | z2 E,2 F,3 E, | D,2 C,2 B,,4 | A,,4 z4 | %38
w: * i- me|che mi si|muo- v'un ge-|lo||e te- mo|non mi to-|glia|
 z8 | D,4 D,2 D,2 | F,3 E, D,2 C,2 | _B,,3 A,, G,,A,,"^b"B,,C, | D,4 A,,4 | z2 D,2 D,2 D,2 | %44
w: |il cor di|quel che l'oc- chio|più m'in- vo- * * *|* glia|il cor di|
 F,3 E, D,2 C,2 | _B,,3 A,, G,,A,,"^b"B,,C, | D,8 |] %47
w: quel che l'oc- chio|più m'in- vo- * * *|glia.|

